static/img/in-field/switches.svg

<svg fill="none" height="162" viewBox="0 0 1088 162" width="1088" xmlns="http://www.w3.org/2000/svg"><path d="m.5 0h1087v162h-1087z" fill="#f1f1f6"/><rect fill="#90939f" height="32" rx="16" transform="matrix(1 0 0 -1 479.75 64)" width="64"/><path d="m505.083 48c0 5.1547-4.179 9.3334-9.333 9.3334-5.155 0-9.333-4.1787-9.333-9.3334 0-5.1546 4.178-9.3333 9.333-9.3333 5.154 0 9.333 4.1787 9.333 9.3333z" fill="#fff"/><path d="m560.909 57v-15.7051h1.826v14.0508h6.929v1.6543zm18.652 0-.355-1.6758h-.086c-.587.7376-1.174 1.239-1.762 1.5039-.58.2578-1.307.3867-2.18.3867-1.168 0-2.084-.3007-2.75-.9023-.659-.6016-.989-1.4574-.989-2.5674 0-2.3776 1.902-3.6237 5.705-3.7383l1.998-.0644v-.7305c0-.9238-.201-1.6042-.602-2.041-.394-.444-1.028-.666-1.901-.666-.981 0-2.091.3008-3.33.9023l-.548-1.3642c.58-.3151 1.214-.5622 1.901-.7412.695-.1791 1.389-.2686 2.084-.2686 1.404 0 2.442.3115 3.115.9346.681.623 1.021 1.622 1.021 2.997v8.0352zm-4.029-1.2568c1.11 0 1.98-.3044 2.611-.9131.637-.6087.956-1.461.956-2.5567v-1.0634l-1.784.0752c-1.418.0501-2.442.2721-3.072.666-.623.3867-.934.9918-.934 1.8154 0 .6445.193 1.1351.58 1.4717.394.3366.941.5049 1.643.5049zm14.763-10.71c1.547 0 2.746.53 3.599 1.5898.859 1.0528 1.289 2.5459 1.289 4.4795s-.434 3.4375-1.3 4.5118c-.86 1.067-2.056 1.6005-3.588 1.6005-.766 0-1.468-.1396-2.106-.4189-.63-.2865-1.16-.7233-1.589-1.3105h-.129l-.376 1.5146h-1.279v-16.7148h1.784v4.0605c0 .9095-.029 1.7259-.086 2.4492h.086c.83-1.1745 2.062-1.7617 3.695-1.7617zm-.258 1.4932c-1.217 0-2.095.3509-2.632 1.0527-.537.6947-.805 1.8691-.805 3.5234s.275 2.8396.827 3.5557c.551.709 1.436 1.0635 2.653 1.0635 1.096 0 1.912-.3975 2.449-1.1924.537-.8021.806-1.9515.806-3.4482 0-1.5326-.269-2.6749-.806-3.4268-.537-.752-1.368-1.1279-2.492-1.1279zm13.495 10.6884c-1.74 0-3.115-.5299-4.125-1.5898-1.002-1.0599-1.504-2.5316-1.504-4.415 0-1.8978.466-3.4053 1.397-4.5225.938-1.1172 2.195-1.6758 3.77-1.6758 1.476 0 2.643.487 3.502 1.461.86.9668 1.289 2.2451 1.289 3.8349v1.1279h-8.11c.036 1.3822.383 2.4314 1.042 3.1475.666.7162 1.601 1.0742 2.804 1.0742 1.267 0 2.521-.2649 3.759-.7949v1.5898c-.63.2722-1.228.4655-1.794.5801-.558.1218-1.235.1826-2.03.1826zm-.483-10.7099c-.945 0-1.701.3079-2.267.9238-.558.6159-.888 1.4681-.988 2.5567h6.155c0-1.1244-.25-1.9838-.752-2.5782-.501-.6015-1.217-.9023-2.148-.9023zm9.896 10.4951h-1.783v-16.7148h1.783z" fill="#252a2e"/><rect fill="#217cbb" height="32" rx="16" transform="matrix(1 0 0 -1 479 130)" width="64"/><path d="m540 114c0 7.18-5.82 13-13 13s-13-5.82-13-13 5.82-13 13-13 13 5.82 13 13z" fill="#fff"/><path d="m560.159 123v-15.705h1.826v14.051h6.929v1.654zm18.652 0-.355-1.676h-.086c-.587.738-1.174 1.239-1.762 1.504-.58.258-1.307.387-2.18.387-1.168 0-2.084-.301-2.75-.903-.659-.601-.989-1.457-.989-2.567 0-2.377 1.902-3.624 5.705-3.738l1.998-.065v-.73c0-.924-.201-1.604-.602-2.041-.394-.444-1.028-.666-1.901-.666-.981 0-2.091.301-3.33.902l-.548-1.364c.58-.315 1.214-.562 1.901-.741.695-.179 1.389-.269 2.084-.269 1.404 0 2.442.312 3.115.935.681.623 1.021 1.622 1.021 2.997v8.035zm-4.029-1.257c1.11 0 1.98-.304 2.611-.913.637-.609.956-1.461.956-2.557v-1.063l-1.784.075c-1.418.05-2.442.272-3.072.666-.623.387-.934.992-.934 1.816 0 .644.193 1.135.58 1.471.394.337.941.505 1.643.505zm14.763-10.71c1.547 0 2.746.53 3.599 1.59.859 1.053 1.289 2.546 1.289 4.48 0 1.933-.434 3.437-1.3 4.511-.86 1.067-2.056 1.601-3.588 1.601-.766 0-1.468-.14-2.106-.419-.63-.287-1.16-.723-1.589-1.311h-.129l-.376 1.515h-1.279v-16.715h1.784v4.061c0 .909-.029 1.726-.086 2.449h.086c.83-1.175 2.062-1.762 3.695-1.762zm-.258 1.493c-1.217 0-2.095.351-2.632 1.053-.537.695-.805 1.869-.805 3.524 0 1.654.275 2.839.827 3.555.551.709 1.436 1.064 2.653 1.064 1.096 0 1.912-.398 2.449-1.193.537-.802.806-1.951.806-3.448 0-1.532-.269-2.675-.806-3.427s-1.368-1.128-2.492-1.128zm13.495 10.689c-1.74 0-3.115-.53-4.125-1.59-1.002-1.06-1.504-2.532-1.504-4.415 0-1.898.466-3.405 1.397-4.522.938-1.118 2.195-1.676 3.77-1.676 1.476 0 2.643.487 3.502 1.461.86.966 1.289 2.245 1.289 3.835v1.128h-8.11c.036 1.382.383 2.431 1.042 3.147.666.716 1.601 1.074 2.804 1.074 1.267 0 2.521-.265 3.759-.795v1.59c-.63.272-1.228.466-1.794.58-.558.122-1.235.183-2.03.183zm-.483-10.71c-.945 0-1.701.308-2.267.924-.558.616-.888 1.468-.988 2.556h6.155c0-1.124-.25-1.983-.752-2.578-.501-.601-1.217-.902-2.148-.902zm9.896 10.495h-1.783v-16.715h1.783z" fill="#252a2e"/></svg>

<svg width="1088" height="162" viewBox="0 0 1088 162" fill="none" xmlns="http://www.w3.org/2000/svg">
<rect width="1087" height="162" transform="translate(0.5)" fill="#F1F1F6"/>
<rect width="64" height="32" rx="16" transform="matrix(1 0 0 -1 479.75 64)" fill="#90939F"/>
<path d="M505.083 48C505.083 53.1547 500.904 57.3334 495.75 57.3334C490.595 57.3334 486.417 53.1547 486.417 48C486.417 42.8454 490.595 38.6667 495.75 38.6667C500.904 38.6667 505.083 42.8454 505.083 48Z" fill="#fff"/>
<path d="M560.909 57V41.2949H562.735V55.3457H569.664V57H560.909ZM579.561 57L579.206 55.3242H579.12C578.533 56.0618 577.946 56.5632 577.358 56.8281C576.778 57.0859 576.051 57.2148 575.178 57.2148C574.01 57.2148 573.094 56.9141 572.428 56.3125C571.769 55.7109 571.439 54.8551 571.439 53.7451C571.439 51.3675 573.341 50.1214 577.144 50.0068L579.142 49.9424V49.2119C579.142 48.2881 578.941 47.6077 578.54 47.1709C578.146 46.7269 577.512 46.5049 576.639 46.5049C575.658 46.5049 574.548 46.8057 573.309 47.4072L572.761 46.043C573.341 45.7279 573.975 45.4808 574.662 45.3018C575.357 45.1227 576.051 45.0332 576.746 45.0332C578.15 45.0332 579.188 45.3447 579.861 45.9678C580.542 46.5908 580.882 47.5898 580.882 48.9648V57H579.561ZM575.532 55.7432C576.642 55.7432 577.512 55.4388 578.143 54.8301C578.78 54.2214 579.099 53.3691 579.099 52.2734V51.21L577.315 51.2852C575.897 51.3353 574.873 51.5573 574.243 51.9512C573.62 52.3379 573.309 52.943 573.309 53.7666C573.309 54.4111 573.502 54.9017 573.889 55.2383C574.283 55.5749 574.83 55.7432 575.532 55.7432ZM590.295 45.0332C591.842 45.0332 593.041 45.5632 593.894 46.623C594.753 47.6758 595.183 49.1689 595.183 51.1025C595.183 53.0361 594.749 54.54 593.883 55.6143C593.023 56.6813 591.827 57.2148 590.295 57.2148C589.529 57.2148 588.827 57.0752 588.189 56.7959C587.559 56.5094 587.029 56.0726 586.6 55.4854H586.471L586.095 57H584.816V40.2852H586.6V44.3457C586.6 45.2552 586.571 46.0716 586.514 46.7949H586.6C587.43 45.6204 588.662 45.0332 590.295 45.0332ZM590.037 46.5264C588.82 46.5264 587.942 46.8773 587.405 47.5791C586.868 48.2738 586.6 49.4482 586.6 51.1025C586.6 52.7568 586.875 53.9421 587.427 54.6582C587.978 55.3672 588.863 55.7217 590.08 55.7217C591.176 55.7217 591.992 55.3242 592.529 54.5293C593.066 53.7272 593.335 52.5778 593.335 51.0811C593.335 49.5485 593.066 48.4062 592.529 47.6543C591.992 46.9023 591.161 46.5264 590.037 46.5264ZM603.532 57.2148C601.792 57.2148 600.417 56.6849 599.407 55.625C598.405 54.5651 597.903 53.0934 597.903 51.21C597.903 49.3122 598.369 47.8047 599.3 46.6875C600.238 45.5703 601.495 45.0117 603.07 45.0117C604.546 45.0117 605.713 45.4987 606.572 46.4727C607.432 47.4395 607.861 48.7178 607.861 50.3076V51.4355H599.751C599.787 52.8177 600.134 53.8669 600.793 54.583C601.459 55.2992 602.394 55.6572 603.597 55.6572C604.864 55.6572 606.118 55.3923 607.356 54.8623V56.4521C606.726 56.7243 606.128 56.9176 605.562 57.0322C605.004 57.154 604.327 57.2148 603.532 57.2148ZM603.049 46.5049C602.104 46.5049 601.348 46.8128 600.782 47.4287C600.224 48.0446 599.894 48.8968 599.794 49.9854H605.949C605.949 48.861 605.699 48.0016 605.197 47.4072C604.696 46.8057 603.98 46.5049 603.049 46.5049ZM612.945 57H611.162V40.2852H612.945V57Z" fill="#252A2E"/>
<rect width="64" height="32" rx="16" transform="matrix(1 0 0 -1 479 130)" fill="#217CBB"/>
<path d="M540 114C540 121.18 534.18 127 527 127C519.82 127 514 121.18 514 114C514 106.82 519.82 101 527 101C534.18 101 540 106.82 540 114Z" fill="#fff"/>
<path d="M560.159 123V107.295H561.985V121.346H568.914V123H560.159ZM578.811 123L578.456 121.324H578.37C577.783 122.062 577.196 122.563 576.608 122.828C576.028 123.086 575.301 123.215 574.428 123.215C573.26 123.215 572.344 122.914 571.678 122.312C571.019 121.711 570.689 120.855 570.689 119.745C570.689 117.368 572.591 116.121 576.394 116.007L578.392 115.942V115.212C578.392 114.288 578.191 113.608 577.79 113.171C577.396 112.727 576.762 112.505 575.889 112.505C574.908 112.505 573.798 112.806 572.559 113.407L572.011 112.043C572.591 111.728 573.225 111.481 573.912 111.302C574.607 111.123 575.301 111.033 575.996 111.033C577.4 111.033 578.438 111.345 579.111 111.968C579.792 112.591 580.132 113.59 580.132 114.965V123H578.811ZM574.782 121.743C575.892 121.743 576.762 121.439 577.393 120.83C578.03 120.221 578.349 119.369 578.349 118.273V117.21L576.565 117.285C575.147 117.335 574.123 117.557 573.493 117.951C572.87 118.338 572.559 118.943 572.559 119.767C572.559 120.411 572.752 120.902 573.139 121.238C573.533 121.575 574.08 121.743 574.782 121.743ZM589.545 111.033C591.092 111.033 592.291 111.563 593.144 112.623C594.003 113.676 594.433 115.169 594.433 117.103C594.433 119.036 593.999 120.54 593.133 121.614C592.273 122.681 591.077 123.215 589.545 123.215C588.779 123.215 588.077 123.075 587.439 122.796C586.809 122.509 586.279 122.073 585.85 121.485H585.721L585.345 123H584.066V106.285H585.85V110.346C585.85 111.255 585.821 112.072 585.764 112.795H585.85C586.68 111.62 587.912 111.033 589.545 111.033ZM589.287 112.526C588.07 112.526 587.192 112.877 586.655 113.579C586.118 114.274 585.85 115.448 585.85 117.103C585.85 118.757 586.125 119.942 586.677 120.658C587.228 121.367 588.113 121.722 589.33 121.722C590.426 121.722 591.242 121.324 591.779 120.529C592.316 119.727 592.585 118.578 592.585 117.081C592.585 115.549 592.316 114.406 591.779 113.654C591.242 112.902 590.411 112.526 589.287 112.526ZM602.782 123.215C601.042 123.215 599.667 122.685 598.657 121.625C597.655 120.565 597.153 119.093 597.153 117.21C597.153 115.312 597.619 113.805 598.55 112.688C599.488 111.57 600.745 111.012 602.32 111.012C603.796 111.012 604.963 111.499 605.822 112.473C606.682 113.439 607.111 114.718 607.111 116.308V117.436H599.001C599.037 118.818 599.384 119.867 600.043 120.583C600.709 121.299 601.644 121.657 602.847 121.657C604.114 121.657 605.368 121.392 606.606 120.862V122.452C605.976 122.724 605.378 122.918 604.812 123.032C604.254 123.154 603.577 123.215 602.782 123.215ZM602.299 112.505C601.354 112.505 600.598 112.813 600.032 113.429C599.474 114.045 599.144 114.897 599.044 115.985H605.199C605.199 114.861 604.949 114.002 604.447 113.407C603.946 112.806 603.23 112.505 602.299 112.505ZM612.195 123H610.412V106.285H612.195V123Z" fill="#252A2E"/>
</svg>
